build/svg/cmd/lc_view100.svg

<?xml version="1.0" encoding="UTF-8" standalone="no"?>
<svg
   xmlns:dc="http://purl.org/dc/elements/1.1/"
   xmlns:cc="http://creativecommons.org/ns#"
   xmlns:rdf="http://www.w3.org/1999/02/22-rdf-syntax-ns#"
   xmlns:svg="http://www.w3.org/2000/svg"
   xmlns="http://www.w3.org/2000/svg"
   xmlns:sodipodi="http://sodipodi.sourceforge.net/DTD/sodipodi-0.dtd"
   xmlns:inkscape="http://www.inkscape.org/namespaces/inkscape"
   viewBox="0 0 24 24"
   version="1.1"
   id="svg4"
   sodipodi:docname="lc_view100.svg"
   inkscape:version="0.92.5 (2060ec1f9f, 2020-04-08)"
   inkscape:export-filename="/home/jupiter007/Libreoffice yaru theme fullcolor/build/cmd/lc_view100.png"
   inkscape:export-xdpi="95"
   inkscape:export-ydpi="95">
  <metadata
     id="metadata10">
    <rdf:RDF>
      <cc:Work
         rdf:about="">
        <dc:format>image/svg+xml</dc:format>
        <dc:type
           rdf:resource="http://purl.org/dc/dcmitype/StillImage" />
      </cc:Work>
    </rdf:RDF>
  </metadata>
  <defs
     id="defs8" />
  <sodipodi:namedview
     pagecolor="#ffffff"
     bordercolor="#666666"
     borderopacity="1"
     objecttolerance="10"
     gridtolerance="10"
     guidetolerance="10"
     inkscape:pageopacity="0"
     inkscape:pageshadow="2"
     inkscape:window-width="1920"
     inkscape:window-height="1011"
     id="namedview6"
     showgrid="true"
     inkscape:zoom="39.333333"
     inkscape:cx="2.4084103"
     inkscape:cy="8.5067402"
     inkscape:window-x="1920"
     inkscape:window-y="32"
     inkscape:window-maximized="1"
     inkscape:current-layer="svg4">
    <inkscape:grid
       type="xygrid"
       id="grid817" />
  </sodipodi:namedview>
  <path
     style="color:#000000;font-weight:400;line-height:normal;font-family:sans-serif;font-variant-ligatures:normal;font-variant-position:normal;font-variant-caps:normal;font-variant-numeric:normal;font-variant-alternates:normal;font-feature-settings:normal;text-indent:0;text-align:start;text-decoration:none;text-decoration-line:none;text-decoration-style:solid;text-decoration-color:#000000;text-transform:none;text-orientation:mixed;white-space:normal;shape-padding:0;overflow:visible;opacity:0.7;isolation:auto;mix-blend-mode:normal;fill:#000000;fill-opacity:1;stroke:#000000;stroke-width:2;stroke-linejoin:round;stroke-miterlimit:4;stroke-dasharray:none"
     d="M 11.469687,4.9695254 A 6.508,6.508 0 0 0 4.9696884,11.469526 c 0,3.583999 2.915999,6.499999 6.4999986,6.499999 1.612224,0 3.087362,-0.592853 4.224609,-1.568359 l 2.921875,2.921875 0.707032,-0.707032 -2.921875,-2.921875 c 0.975506,-1.137247 1.568359,-2.612384 1.568359,-4.224608 0,-3.5840008 -2.916,-6.5000006 -6.5,-6.5000006 z m 0,1.0390622 c 3.022,0 5.460938,2.4389376 5.460938,5.4609384 0,3.021999 -2.438938,5.460937 -5.460938,5.460937 A 5.454,5.454 0 0 1 6.0087504,11.469526 c 0,-3.0220008 2.439937,-5.4609384 5.4609366,-5.4609384 z"
     id="path2035-9"
     inkscape:connector-curvature="0" />
  <path
     inkscape:connector-curvature="0"
     style="color:#000000;font-weight:400;line-height:normal;font-family:sans-serif;font-variant-ligatures:normal;font-variant-position:normal;font-variant-caps:normal;font-variant-numeric:normal;font-variant-alternates:normal;font-feature-settings:normal;text-indent:0;text-align:start;text-decoration:none;text-decoration-line:none;text-decoration-style:solid;text-decoration-color:#000000;text-transform:none;text-orientation:mixed;white-space:normal;shape-padding:0;overflow:visible;isolation:auto;mix-blend-mode:normal;fill:#c8c4b7;fill-opacity:1"
     d="m 11.46875,4.9685874 a 6.508,6.508 0 0 0 -6.5,6.4999996 c 0,3.583999 2.9160004,6.5 6.5,6.5 1.612122,0 3.087391,-0.59101 4.224609,-1.566406 l 2.921875,2.921875 0.707032,-0.708985 -2.921875,-2.921875 c 0.975906,-1.137352 1.568359,-2.612017 1.568359,-4.224609 0,-3.5840008 -2.916,-6.4999996 -6.5,-6.4999996 z m 0,1.0410156 c 3.022,0 5.460938,2.4369832 5.460938,5.458984 0,3.021999 -2.438938,5.460937 -5.460938,5.460938 A 5.454,5.454 0 0 1 6.0078125,11.468587 c 0,-3.0220008 2.4399379,-5.458984 5.4609375,-5.458984 z"
     id="path2035" />
  <path
     style="opacity:1;vector-effect:none;fill:#ffffff;fill-opacity:1;stroke:none;stroke-width:2;stroke-linecap:round;stroke-linejoin:bevel;stroke-miterlimit:4;stroke-dasharray:none;stroke-dashoffset:0;stroke-opacity:1"
     id="path2707"
     sodipodi:type="arc"
     sodipodi:cx="11.469687"
     sodipodi:cy="11.469526"
     sodipodi:rx="5.5"
     sodipodi:ry="5.5"
     sodipodi:start="0"
     sodipodi:end="6.2319424"
     sodipodi:open="true"
     d="M 16.969687,11.469526 A 5.5,5.5 0 0 1 11.540145,16.969075 5.5,5.5 0 0 1 5.9714926,11.610429 5.5,5.5 0 0 1 11.258363,5.9735876 5.5,5.5 0 0 1 16.962468,11.187814" />
  <path
     style="fill:#232629;fill-opacity:1;stroke:none;stroke-width:1px;stroke-linecap:butt;stroke-linejoin:miter;stroke-opacity:1"
     d="M 11 8 L 8.8789062 10.121094 L 9.5859375 10.828125 L 11 9.4140625 L 11 9.5 L 11 14 L 9 14 L 9 15 L 14 15 L 14 14 L 12 14 L 12 8 L 11 8 z "
     id="path827" />
</svg>

<svg xmlns="http://www.w3.org/2000/svg" viewBox="0 0 24 24"><path style="line-height:normal;font-variant-ligatures:normal;font-variant-position:normal;font-variant-caps:normal;font-variant-numeric:normal;font-variant-alternates:normal;font-feature-settings:normal;text-indent:0;text-align:start;text-decoration-line:none;text-decoration-style:solid;text-decoration-color:#000;text-transform:none;text-orientation:mixed;white-space:normal;shape-padding:0;isolation:auto;mix-blend-mode:normal" d="M11.47 4.97a6.508 6.508 0 00-6.5 6.5c0 3.584 2.916 6.5 6.5 6.5a6.47 6.47 0 004.224-1.569l2.922 2.922.707-.707-2.922-2.922a6.47 6.47 0 001.569-4.224c0-3.584-2.916-6.5-6.5-6.5zm0 1.039a5.453 5.453 0 015.46 5.46 5.453 5.453 0 01-5.46 5.461 5.454 5.454 0 01-5.461-5.46c0-3.022 2.44-5.461 5.46-5.461z" color="#000" font-weight="400" font-family="sans-serif" overflow="visible" opacity=".7" stroke="#000" stroke-width="2" stroke-linejoin="round"/><path style="line-height:normal;font-variant-ligatures:normal;font-variant-position:normal;font-variant-caps:normal;font-variant-numeric:normal;font-variant-alternates:normal;font-feature-settings:normal;text-indent:0;text-align:start;text-decoration-line:none;text-decoration-style:solid;text-decoration-color:#000;text-transform:none;text-orientation:mixed;white-space:normal;shape-padding:0;isolation:auto;mix-blend-mode:normal" d="M11.469 4.969a6.508 6.508 0 00-6.5 6.5c0 3.584 2.916 6.5 6.5 6.5a6.468 6.468 0 004.224-1.567l2.922 2.922.707-.709-2.922-2.922a6.467 6.467 0 001.569-4.224c0-3.584-2.916-6.5-6.5-6.5zm0 1.04a5.452 5.452 0 015.46 5.46 5.453 5.453 0 01-5.46 5.46 5.454 5.454 0 01-5.461-5.46 5.452 5.452 0 015.46-5.46z" color="#000" font-weight="400" font-family="sans-serif" overflow="visible" fill="#c8c4b7"/><path d="M16.97 11.47a5.5 5.5 0 01-5.43 5.5 5.5 5.5 0 01-5.569-5.36 5.5 5.5 0 015.287-5.636 5.5 5.5 0 015.704 5.214" fill="#fff"/><path d="M11 8l-2.121 2.121.707.707L11 9.414V14H9v1h5v-1h-2V8h-1z" fill="#232629"/></svg>
